X:1
T:[ID 2-33]
T:[ID 2-33]
T:Bezeichnung standardisiert: Schwabisch Schwabisch
T:Urheber unbekannt Datum in der hier transkribierten schriftlichen Quelle: 1796
C:Urheber unbekannt
C:Datum in der hier transkribierten schriftlichen Quelle: 1796
L:1/8
M:3/8
K:D
V:1 treble 
V:1
 dfd | a>gf | gb/g/e | c/d/e/c/A | dfd | a>gf | gb/g/e/c/ | d3 :: d2 _c | BA/B/G | e2 d | %11
 c/d/e/c/A | dfd | a>gf | gb/g/e/c/ | d3 :| %16

